X:1
T: Lady Peel
C:William Marshall
R:Strathspey
Q: 128
K:Eb
M:4/4
L:1/16
|:B,2|E3F EDCB, CF3 F3G|E3B G3e B3g e3b|E3F EDCB, CF3 F3G|B,3E EDCB, E4 E2B,2|
E3F EDCB, CF3 F3G|E3B G3e B3g e3b|E3F EDCB, CF3 F3G|B,3E EDCB, E4 E2B2|
e3f edcB cf3 f3g|e3g c3e B3e G3E|e3f edcB cf3 f3g|edcB cd3 e4 e2B2|
e3f edcB cf3 f3g|e3g c3e B3e G3E|A3c G3B C3F FG3|C3E EDCB, E4 E2:|
